!!!OTL-incipit: AUF IHR BRUEDER ALLEZUMAL, FAHRET KANONEN WOHL VOR DEN WALL
!!!ARE: Europa, Mitteleuropa, Deutschland, Anclam
!!!SCT: Z0200
!!!TXL: @@DE
!!!YEM: Copyright 1995, estate of Helmut Schaffrath.
**kern	**text
*ICvox	*
*M6/8	*
*k[b-]	*
*F:	*
=1	=1
!LO:TX:a:t=Jn Anclam gehört.	!
!LO:TX:a:t=Kriegslied des Colbergſchen Negiments.	!
{4f	Auf,
8g	ihr
4f	Brü-
8g	-der,
=2	=2
8f	al-
8e	-le-
8d	-ʒu-
4c	-mal,
8r}	.
=3	=3
{8fL	fahret
8eJ	.
8f	Ka-
8gL	-nonen
8fJ	.
8g	wohl
=4	=4
4a	vor
8b-/	den
4a	Wall.
8r}	.
=5	=5
{4f	Auf,
8g	ihr
4f	Brü-
8g	-der,
=6	=6
8f	al-
8e	-le-
8d	-ʒu-
4c	-mal,
8r}	.
=7	=7
{8fL	fahret
8eJ	.
8f	Ka-
8gL	-nonen
8f	.
8gJ	wohl
=8	=8
4a	vor
8b-/	den
4a}	Wall.
=|:	=|:
{16fL	Wir
16gJ	.
=9	=9
8aL	müſſen
8aJ	.
16cc	den
16cc	Fran-
8aL	-ʒoſen
8aJ	.
8cc	den
=10	=10
8aL	Buckel
8aJ	.
8cc	be-
4a}	-ſehn,
{8a	ſonſt
=11	=11
4g	wär's
8g	uns
4cc	ei-
8b-	-ne
=12	=12
(4a	Schan-
8g)	.
4a}	-de,
{8c	und
=13	=13
4a	wenn
8g	wir
8fL	wieder
8eJ	.
8f	nach
=14	=14
8dL	Pommer-
8eJ	.
8f	-land
4c}	gehn,
{8c	ſo
=15	=15
8f	ja-
8f	-gen
8f	ſie
8cc	uns
8cc	aus
8b-	dem
=16	=16
(4a	Lan-
8g)	.
4f	-de.
8r}	.
==	==
!!!AGN: Soldaten -, Kriegs - Lied
!!!ONB: ESAC (Essen Associative Code) Database: ZUCCAL
!!!AMT: compound duple
!!!AIN: vox
!!!EED: Helmut Schaffrath
!!!EEV: 1.0
!!!GTL: III. Soldaten-, Jaeger-, Schiffer-, Fuhrmanns- und Handwerks-Lieder.
!!!URL-scan: https://www.digitale-sammlungen.de/de/view/bsb11160571?page=370
!!!ENC: Anna Maria Matuszewska
!!!EEV: 2025/01/28
*-	*-
